packages/ui-icons/svg/Line/mastery-paths.svg

<svg viewBox="0 0 1920 1920" version="1.1" xmlns="http://www.w3.org/2000/svg">
    <path d="M1892.10042,374.225941 L1517.87448,0 L1143.76011,374.225941 L1222.64435,453.110181 L1462.08647,213.668061 L1462.08647,692.663877 C1462.08647,884.128312 1345.48954,954.198047 1210.37099,1035.31381 C1118.76709,1090.20921 1020.02232,1150.2371 959.994421,1252.21757 C900.078103,1150.2371 801.333333,1090.20921 709.729428,1035.31381 C574.610879,954.198047 457.902371,884.128312 457.902371,692.663877 L457.902371,213.668061 L697.456067,453.110181 L776.340307,374.225941 L402.114365,0 L28,374.225941 L106.88424,453.110181 L346.32636,213.668061 L346.32636,692.663877 C346.32636,947.391911 509.004184,1044.90934 652.490934,1130.93445 C787.609484,1212.05021 904.206416,1282.11994 904.206416,1473.69596 L904.206416,1920 L1015.78243,1920 L1015.78243,1473.69596 C1015.78243,1282.11994 1132.49093,1212.05021 1267.60948,1130.93445 C1411.09623,1044.90934 1573.66248,947.391911 1573.66248,692.663877 L1573.66248,213.668061 L1813.21618,453.110181 L1892.10042,374.225941 Z" stroke="none" stroke-width="1" fill-rule="evenodd"/>
</svg>

<svg viewBox="0 0 1920 1920" xmlns="http://www.w3.org/2000/svg">
    <path d="M1892.1 374.226 1517.874 0 1143.76 374.226l78.884 78.884 239.442-239.442v478.996c0 191.464-116.596 261.534-251.715 342.65-91.604 54.895-190.349 114.923-250.377 216.904-59.916-101.98-158.66-162.009-250.265-216.904-135.118-81.116-251.827-151.186-251.827-342.65V213.668L697.456 453.11l78.884-78.884L402.114 0 28 374.226l78.884 78.884 239.442-239.442v478.996c0 254.728 162.678 352.245 306.165 438.27 135.118 81.116 251.715 151.186 251.715 342.762V1920h111.576v-446.304c0-191.576 116.709-261.646 251.827-342.762 143.487-86.025 306.053-183.542 306.053-438.27V213.668l239.554 239.442 78.884-78.884Z" fill-rule="evenodd"/>
</svg>
